X: 105
T: Something Sacred I Wear
C: Teton Sioux band 1911-1914
N: Derived from sioux105.krn
O: South Dakota, U.S.A.
N: Teton Sioux Music by Frances Densmore, 1918
Z: transcribed to **kern format by Craig Sapp
L: 1/8
M: 2/4
Q: 1/4=58
K: D clef=bass
%%linebreak <none>
E7/F/ [I:setbarnb 2]| 
F2(3:2:1F F (3:2:1F/ | 
F2F F | 
E3D | 
D2(3B, B, B, ||  
[M:3/4]D D-D2D D ||  
[M:2/4]B,4 | 
D B,-B,2 | 
B,4 | 
D< D B, B, | 
D< D E D | 
B,3B, | 
(B,< F,) (3E, E, E, ||  
[M:3/4]F, F,-F,2F, F, ||  
[M:2/4]E,3F, | 
(E,< D,) (3B,, B,, B,, ||  
[M:3/4]D, D,-D,2D, D, ||  
[M:2/4]B,,4 | 
B,,4 | 
B,,4 | 
D< D B, B, | 
D< D E D | 
B,3B, | 
(B,< F,) (3E, E, E, ||  
[M:3/4]F, F,-F,2F, F, ||  
[M:2/4]E,3F, | 
(E,< D,) (3B,, B,, B,, ||  
[M:3/4]D, D,D,2D, D, ||  
[M:2/4]B,,3B,, | 
B,,3B,, | 
B,,4 |]  



